svgs/1F63D.svg

<svg xmlns="http://www.w3.org/2000/svg" xmlns:xlink="http://www.w3.org/1999/xlink" preserveAspectRatio="none" viewBox="0 0 72 72"><defs><radialGradient id="a" cx="0" cy="0" r="10.375" fx="0" fy="0" gradientTransform="translate(53.3 46.4)" gradientUnits="userSpaceOnUse" spreadMethod="pad"><stop offset="0%" stop-color="#F79329"/><stop offset="100%" stop-color="#FCC21B" stop-opacity="0"/></radialGradient><radialGradient id="b" cx="0" cy="0" r="10.375" fx="0" fy="0" gradientTransform="translate(18.6 46.4)" gradientUnits="userSpaceOnUse" spreadMethod="pad"><stop offset="0%" stop-color="#F79329"/><stop offset="100%" stop-color="#FCC21B" stop-opacity="0"/></radialGradient><path id="c" fill="#FCC21B" d="M66.85 48q.563-3.917-.05-8.15-.85-5.1-3.85-9.65.75-7.8.55-13.6-.45-9.5-3.55-11.65-2.5-1.65-8.3 3.05-3.95 3.05-7.6 7.35l-1.85 2.2q-3.3-.5-6.2-.5-2.9 0-6.2.5l-1.85-2.2q-3.65-4.3-7.6-7.35-5.8-4.7-8.3-3.05Q8.95 7.1 8.5 16.6q-.2 5.8.55 13.6-3 4.55-3.85 9.65-.6 4.25-.1 8.2.1.45.15.95.45 2.35 1.3 4.6l.2.5q.5 1 1.05 1.95.05 0 .05.05v.05q1.75 2.65 4.45 4.7 5.15 3.8 12.55 5.45Q31 67.55 35.8 67.55h.4q4.8 0 10.95-1.25 7.4-1.65 12.55-5.45 2.676-2.053 4.4-4.75h.05q.01-.026 0-.05.614-.94 1.1-1.95l.2-.5q.845-2.256 1.25-4.65.108-.452.15-.95z"/><path id="d" fill="#FCD995" d="M-24.95 46.55q2.7-2.05 4.45-4.7v-.05q0-.05.05-.05.55-.95 1.05-1.95l.2-.5q.85-2.25 1.3-4.6.05-.5.15-.95-15.25-5.2-30.9-5.3-15.65.1-30.9 5.3.1.45.15.95.45 2.35 1.3 4.6l.2.5q.5 1 1.05 1.95.05 0 .05.05v.05q1.75 2.65 4.45 4.7 5.15 3.8 12.55 5.45 6.15 1.25 10.95 1.25h.4q4.8 0 10.95-1.25 7.4-1.65 12.55-5.45z"/><path id="e" fill="#FCD995" d="M13.35 7.35q-3.4 1.4-.85 19.35 5.7-4.75 13.1-8.25Q16.85 6.1 13.35 7.35m46.1 19.3Q62.045 8.757 58.6 7.3q-3.469-1.22-12.25 11.15 7.46 3.488 13.1 8.2z"/><path id="f" fill="url(#a)" d="M49.8 36.7q-4.1 1.45-5.95 5.35-1.8 3.9-.35 7.95 1.5 4 5.45 5.85 3.95 1.8 8 .35 4.1-1.5 5.95-5.35 1.85-3.9.35-7.95-1.5-4.05-5.45-5.85-3.95-1.85-8-.35z"/><path id="g" fill="url(#b)" d="M15.1 36.7q-4.1 1.45-5.95 5.35-1.8 3.9-.35 7.95 1.5 4 5.45 5.85 3.95 1.8 8 .35 4.1-1.5 5.95-5.35 1.85-3.9.35-7.95-1.5-4.05-5.45-5.85-3.95-1.85-8-.35z"/><path id="i" fill="#2F2F2F" d="M51.4 48.8q-4.65-3.7-10.8-3.7-6.1 0-10.75 3.7-2.35 1.85-3.6 3.9-.55 1-.3 2.05.3 1.1 1.25 1.65.95.6 2.05.3 1.1-.25 1.7-1.2.85-1.35 2.45-2.6 3.1-2.4 7.2-2.35 4.15 0 7.25 2.4 1.6 1.2 2.45 2.55.75 1.3 2.35 1.3.75 0 1.4-.35.95-.6 1.25-1.7.25-1.1-.3-2.05-1.25-2.05-3.6-3.9z"/><path id="j" fill="#2F2F2F" d="M98.35 48.75q-4.65-3.7-10.75-3.7-6.15 0-10.8 3.7-3.5 3.8-3.6 3.95-.55 1-.3 2.05.3 1.1 1.25 1.65.95.6 2.1.3 1.1-.25 1.65-1.25l2.35-2.5q3.15-2.45 7.35-2.45 4.1 0 7.25 2.4 1.6 1.2 2.4 2.55.8 1.35 2.35 1.35.7 0 1.4-.4.95-.55 1.25-1.65.25-1.1-.3-2.05-1.25-2.05-3.6-3.95z"/><path id="k" fill="#2F2F2F" d="M31.2 43.1q2.95.6 4.8 2.45 1.85-1.85 4.8-2.45-.95-2.7-4.75-2.7-3.95 0-4.85 2.7z"/><path id="n" fill="#2F2F2F" d="M96.35 36.15q-.9.2-1.5.6-.75.5-.65 1 .05.5.9.7.45.05 1.4.05 2.05 0 2.85.65.35.25.4 1.1.05.45-.4.95-.6.8-1.8 1.05-.6.2-1 .6-.4.45-.25 1 .25.7 1.05.85l.3.1q2.4.45 2.75 1.65.1.25 0 .65t-.25.55q-.65.8-1.6 1.2-.8.35-2.1.55-2.25.3-2.25 1.15.05.55.85.9.7.25 1.45.25 4.2 0 6-2.2 1.2-1.45.9-3.5-.3-1.55-2.2-2.7 1.6-1.55 1.55-3.15-.05-1.95-1.6-3.25-.8-.65-2.25-.9-1.35-.15-2.55.15z"/><path id="h" fill="none" stroke="#2F2F2F" stroke-linecap="round" stroke-linejoin="round" stroke-width="2" d="M58.15 43.1q5.85-1.05 11.75-.6M60.15 47q4.7.25 8.7 1.4m-12.4-8.85q6.5-2.85 14.4-3.3M14 43.1Q8.1 42 2.25 42.5m9.7 4.5q-4.7.3-8.75 1.4m12.4-8.85q-6.5-2.85-14.4-3.3"/><path id="l" fill="none" stroke="#2F2F2F" stroke-linecap="round" stroke-linejoin="round" stroke-width="1" d="M30.993 42.382q3.096.63 5.038 2.571 1.941-1.941 5.037-2.57-.997-2.834-4.985-2.834-4.145 0-5.09 2.833z"/><path id="m" fill="none" stroke="#2F2F2F" stroke-linecap="round" stroke-linejoin="round" stroke-width="2" d="M36.03 44.953v3.464"/></defs><use xlink:href="#c"/><use transform="translate(84.65 14.3)" xlink:href="#d"/><use xlink:href="#e"/><use xlink:href="#f"/><use xlink:href="#g"/><use xlink:href="#h"/><use transform="rotate(-5.001 134.41 -2.735) scale(.49704)" xlink:href="#i"/><use transform="rotate(5.001 -66.574 91.862) scale(.49704)" xlink:href="#j"/><g transform="matrix(1.04947 0 0 1.04947 -1.75 -2.85)"><use xlink:href="#k"/><use transform="translate(1.65 2.7) scale(.95285)" xlink:href="#l"/><use transform="translate(1.65 2.7) scale(.95285)" xlink:href="#m"/></g><use transform="matrix(.82796 0 0 .82796 -44.8 17.8)" xlink:href="#n"/></svg>

<svg xmlns="http://www.w3.org/2000/svg" version="1.1" xmlns:xlink="http://www.w3.org/1999/xlink" preserveAspectRatio="none" x="0px" y="0px" width="72px" height="72px" viewBox="0 0 72 72">
<defs>
<radialGradient id="Gradient_1" gradientUnits="userSpaceOnUse" cx="0" cy="0" r="10.375" fx="0" fy="0" gradientTransform="matrix( 1, 0, 0, 1, 53.3,46.4) " spreadMethod="pad">
<stop  offset="0%" stop-color="#F79329"/>

<stop  offset="100%" stop-color="#FCC21B" stop-opacity="0"/>
</radialGradient>

<radialGradient id="Gradient_2" gradientUnits="userSpaceOnUse" cx="0" cy="0" r="10.375" fx="0" fy="0" gradientTransform="matrix( 1, 0, 0, 1, 18.6,46.4) " spreadMethod="pad">
<stop  offset="0%" stop-color="#F79329"/>

<stop  offset="100%" stop-color="#FCC21B" stop-opacity="0"/>
</radialGradient>

<g id="Layer0_0_FILL">
<path fill="#FCC21B" stroke="none" d="
M 66.85 48
Q 67.4126953125 44.083203125 66.8 39.85 65.95 34.75 62.95 30.2 63.7 22.4 63.5 16.6 63.05 7.1 59.95 4.95 57.45 3.3 51.65 8 47.7 11.05 44.05 15.35
L 42.2 17.55
Q 38.9 17.05 36 17.05 33.1 17.05 29.8 17.55
L 27.95 15.35
Q 24.3 11.05 20.35 8 14.55 3.3 12.05 4.95 8.95 7.1 8.5 16.6 8.3 22.4 9.05 30.2 6.05 34.75 5.2 39.85 4.6 44.1 5.1 48.05 5.2 48.5 5.25 49 5.7 51.35 6.55 53.6 6.65 53.85 6.75 54.1 7.25 55.1 7.8 56.05 7.85 56.05 7.85 56.1
L 7.85 56.15
Q 9.6 58.8 12.3 60.85 17.45 64.65 24.85 66.3 31 67.55 35.8 67.55 35.9 67.55 36 67.55 36.1 67.55 36.2 67.55 41 67.55 47.15 66.3 54.55 64.65 59.7 60.85 62.376171875 58.7970703125 64.1 56.1
L 64.15 56.1
Q 64.159375 56.0740234375 64.15 56.05 64.7638671875 55.110546875 65.25 54.1 65.34921875 53.85078125 65.45 53.6 66.29453125 51.344140625 66.7 48.95 66.8080078125 48.4984375 66.85 48 Z"/>
</g>

<g id="Layer0_0_MEMBER_0_FILL">
<path fill="#FCD995" stroke="none" d="
M -24.95 46.55
Q -22.25 44.5 -20.5 41.85
L -20.5 41.8
Q -20.5 41.75 -20.45 41.75 -19.9 40.8 -19.4 39.8 -19.3 39.55 -19.2 39.3 -18.35 37.05 -17.9 34.7 -17.85 34.2 -17.75 33.75 -33 28.55 -48.65 28.45 -64.3 28.55 -79.55 33.75 -79.45 34.2 -79.4 34.7 -78.95 37.05 -78.1 39.3 -78 39.55 -77.9 39.8 -77.4 40.8 -76.85 41.75 -76.8 41.75 -76.8 41.8
L -76.8 41.85
Q -75.05 44.5 -72.35 46.55 -67.2 50.35 -59.8 52 -53.65 53.25 -48.85 53.25 -48.75 53.25 -48.65 53.25 -48.55 53.25 -48.45 53.25 -43.65 53.25 -37.5 52 -30.1 50.35 -24.95 46.55 Z"/>
</g>

<g id="Layer0_0_MEMBER_1_FILL">
<path fill="#FCD995" stroke="none" d="
M 13.35 7.35
Q 9.95 8.75 12.5 26.7 18.2 21.95 25.6 18.45 16.85 6.1 13.35 7.35
M 59.45 26.65
Q 62.0451171875 8.75703125 58.6 7.3 55.1310546875 6.0791015625 46.35 18.45 53.8107421875 21.937890625 59.45 26.65 Z"/>
</g>

<g id="Layer0_1_MEMBER_0_MEMBER_0_FILL">
<path fill="url(#Gradient_1)" stroke="none" d="
M 49.8 36.7
Q 45.7 38.15 43.85 42.05 42.05 45.95 43.5 50 45 54 48.95 55.85 52.9 57.65 56.95 56.2 61.05 54.7 62.9 50.85 64.75 46.95 63.25 42.9 61.75 38.85 57.8 37.05 53.85 35.2 49.8 36.7 Z"/>
</g>

<g id="Layer0_1_MEMBER_0_MEMBER_1_FILL">
<path fill="url(#Gradient_2)" stroke="none" d="
M 15.1 36.7
Q 11 38.15 9.15 42.05 7.35 45.95 8.8 50 10.3 54 14.25 55.85 18.2 57.65 22.25 56.2 26.35 54.7 28.2 50.85 30.05 46.95 28.55 42.9 27.05 38.85 23.1 37.05 19.15 35.2 15.1 36.7 Z"/>
</g>

<g id="Layer0_3_MEMBER_0_FILL">
<path fill="#2F2F2F" stroke="none" d="
M 51.4 48.8
Q 46.75 45.1 40.6 45.1 34.5 45.1 29.85 48.8 27.5 50.65 26.25 52.7 25.7 53.7 25.95 54.75 26.25 55.85 27.2 56.4 28.15 57 29.25 56.7 30.35 56.45 30.95 55.5 31.8 54.15 33.4 52.9 36.5 50.5 40.6 50.55 44.75 50.55 47.85 52.95 49.45 54.15 50.3 55.5 51.05 56.8 52.65 56.8 53.4 56.8 54.05 56.45 55 55.85 55.3 54.75 55.55 53.65 55 52.7 53.75 50.65 51.4 48.8 Z"/>
</g>

<g id="Layer0_3_MEMBER_1_FILL">
<path fill="#2F2F2F" stroke="none" d="
M 98.35 48.75
Q 93.7 45.05 87.6 45.05 81.45 45.05 76.8 48.75 73.3 52.55 73.2 52.7 72.65 53.7 72.9 54.75 73.2 55.85 74.15 56.4 75.1 57 76.25 56.7 77.35 56.45 77.9 55.45
L 80.25 52.95
Q 83.4 50.5 87.6 50.5 91.7 50.5 94.85 52.9 96.45 54.1 97.25 55.45 98.05 56.8 99.6 56.8 100.3 56.8 101 56.4 101.95 55.85 102.25 54.75 102.5 53.65 101.95 52.7 100.7 50.65 98.35 48.75 Z"/>
</g>

<g id="Layer0_4_FILL">
<path fill="#2F2F2F" stroke="none" d="
M 31.2 43.1
Q 34.15 43.7 36 45.55 37.85 43.7 40.8 43.1 39.85 40.4 36.05 40.4 32.1 40.4 31.2 43.1 Z"/>
</g>

<g id="Layer0_5_FILL">
<path fill="#2F2F2F" stroke="none" d="
M 96.35 36.15
Q 95.45 36.35 94.85 36.75 94.1 37.25 94.2 37.75 94.25 38.25 95.1 38.45 95.55 38.5 96.5 38.5 98.55 38.5 99.35 39.15 99.7 39.4 99.75 40.25 99.8 40.7 99.35 41.2 98.75 42 97.55 42.25 96.95 42.45 96.55 42.85 96.15 43.3 96.3 43.85 96.55 44.55 97.35 44.7
L 97.65 44.8
Q 100.05 45.25 100.4 46.45 100.5 46.7 100.4 47.1 100.3 47.5 100.15 47.65 99.5 48.45 98.55 48.85 97.75 49.2 96.45 49.4 94.2 49.7 94.2 50.55 94.25 51.1 95.05 51.45 95.75 51.7 96.5 51.7 100.7 51.7 102.5 49.5 103.7 48.05 103.4 46 103.1 44.45 101.2 43.3 102.8 41.75 102.75 40.15 102.7 38.2 101.15 36.9 100.35 36.25 98.9 36 97.55 35.85 96.35 36.15 Z"/>
</g>

<path id="Layer0_2_1_STROKES" stroke="#2F2F2F" stroke-width="2" stroke-linejoin="round" stroke-linecap="round" fill="none" d="
M 58.15 43.1
Q 64 42.05 69.9 42.5
M 60.15 47
Q 64.85 47.25 68.85 48.4
M 56.45 39.55
Q 62.95 36.7 70.85 36.25
M 14 43.1
Q 8.1 42 2.25 42.5
M 11.95 47
Q 7.25 47.3 3.2 48.4
M 15.6 39.55
Q 9.1 36.7 1.2 36.25"/>

<path id="Layer0_4_1_STROKES" stroke="#2F2F2F" stroke-width="1" stroke-linejoin="round" stroke-linecap="round" fill="none" d="
M 30.9934326171875 42.38211364746094
Q 34.08936614990234 43.01179504394531 36.0308837890625 44.953312683105466 37.97240142822266 43.01179504394531 41.0683349609375 42.38211364746094 40.07133941650391 39.548547363281244 36.08335723876953 39.548547363281244 31.937954711914067 39.548547363281244 30.9934326171875 42.38211364746094 Z"/>

<path id="Layer0_4_2_STROKES" stroke="#2F2F2F" stroke-width="2" stroke-linejoin="round" stroke-linecap="round" fill="none" d="
M 36.0308837890625 44.953312683105466
L 36.0308837890625 48.416560363769534"/>
</defs>

<g id="Layer_1">
<g transform="matrix( 1, 0, 0, 1, 0,0) ">
<use xlink:href="#Layer0_0_FILL"/>
</g>

<g transform="matrix( 1, 0, 0, 1, 84.65,14.3) ">
<use xlink:href="#Layer0_0_MEMBER_0_FILL"/>
</g>

<g transform="matrix( 1, 0, 0, 1, 0,0) ">
<use xlink:href="#Layer0_0_MEMBER_1_FILL"/>
</g>

<g transform="matrix( 1, 0, 0, 1, 0,0) ">
<use xlink:href="#Layer0_1_MEMBER_0_MEMBER_0_FILL"/>
</g>

<g transform="matrix( 1, 0, 0, 1, 0,0) ">
<use xlink:href="#Layer0_1_MEMBER_0_MEMBER_1_FILL"/>
</g>

<g transform="matrix( 1, 0, 0, 1, 0,0) ">
<use xlink:href="#Layer0_2_1_STROKES"/>
</g>

<g transform="matrix( 0.495147705078125, -0.043304443359375, 0.043304443359375, 0.495147705078125, 0.75,11.7) ">
<use xlink:href="#Layer0_3_MEMBER_0_FILL"/>
</g>

<g transform="matrix( 0.495147705078125, 0.043304443359375, -0.043304443359375, 0.495147705078125, 7.75,6.15) ">
<use xlink:href="#Layer0_3_MEMBER_1_FILL"/>
</g>

<g transform="matrix( 1.049468994140625, 0, 0, 1.049468994140625, -1.75,-2.85) ">
<use xlink:href="#Layer0_4_FILL"/>

<use xlink:href="#Layer0_4_1_STROKES" transform="matrix( 0.952850341796875, 0, 0, 0.952850341796875, 1.65,2.7) "/>

<use xlink:href="#Layer0_4_2_STROKES" transform="matrix( 0.952850341796875, 0, 0, 0.952850341796875, 1.65,2.7) "/>
</g>

<g transform="matrix( 0.8279571533203125, 0, 0, 0.8279571533203125, -44.8,17.8) ">
<use xlink:href="#Layer0_5_FILL"/>
</g>
</g>
</svg>
